X:139
T:Unknown Quick Step,The. JGi.139
M:2/4
L:1/8
Q:1/4=110
S:Joshua Gibbons MS,1823,Tealby,Lincs.
R:quick step
N:Similar to “Fishers Hornpipe”-RG.
O:Tealby,Lincolnshire
Z:VMP/R.Greig, 2009
K:C
ga/b/|c’geg|fddf|ecge|e2dga/b/|c’geg|fddf|ecdB|c3:|
|:c|Bddd|fddd|ceee|geee|aac’a|ggeg|fdcB|c3:|

